apps/www/public/images/logos/publicity/1password.svg

<svg width="143" height="60" viewBox="0 0 143 60" fill="none" xmlns="http://www.w3.org/2000/svg">
<path fill-rule="evenodd" clip-rule="evenodd" d="M22.4798 41.5894C28.8804 41.5894 34.0692 36.4007 34.0692 30C34.0692 23.5994 28.8804 18.4106 22.4798 18.4106C16.0791 18.4106 10.8904 23.5994 10.8904 30C10.8904 36.4007 16.0791 41.5894 22.4798 41.5894ZM24.6985 23.8238V30.4798C24.6985 30.6581 24.6276 30.8291 24.5015 30.9553L23.7018 31.7549C23.6493 31.8074 23.6493 31.8926 23.7018 31.9451L24.5015 32.7448C24.6276 32.8709 24.6985 33.0419 24.6985 33.2203V36.3545C24.6985 36.7259 24.3974 37.0269 24.026 37.0269H20.9335C20.5622 37.0269 20.2611 36.7259 20.2611 36.3545V29.7338C20.2611 29.5555 20.332 29.3844 20.4581 29.2583L21.2401 28.4762C21.2927 28.4237 21.2927 28.3386 21.2401 28.286L20.4581 27.504C20.332 27.3779 20.2611 27.2068 20.2611 27.0285V23.8238C20.2611 23.4525 20.5622 23.1514 20.9335 23.1514H24.026C24.3974 23.1514 24.6985 23.4525 24.6985 23.8238Z" fill="#7E7E7E"/>
<path d="M86.8327 26.5524C87.7867 26.5524 88.6687 26.5344 89.5507 26.5704C89.6407 26.5704 89.7847 26.8044 89.8207 26.9484C90.2887 29.1984 90.7567 31.4484 91.2247 33.6984C91.2787 33.9504 91.3327 34.1844 91.4227 34.5624C91.5127 34.3284 91.5667 34.2384 91.5847 34.1304C92.1607 31.7544 92.7367 29.3784 93.2947 26.9844C93.3667 26.6424 93.4927 26.5164 93.8527 26.5344C94.5907 26.5524 95.3107 26.5524 96.0487 26.5344C96.3727 26.5164 96.4807 26.6424 96.5527 26.9484C97.1647 29.3604 97.7947 31.7724 98.4067 34.1844C98.4427 34.2924 98.4787 34.4004 98.5687 34.6344C98.8387 33.3564 99.0727 32.2224 99.3247 31.0704C99.6127 29.7024 99.9007 28.3164 100.171 26.9484C100.243 26.6244 100.387 26.5164 100.711 26.5344C101.503 26.5524 102.295 26.5344 103.141 26.5344C103.087 26.8224 103.051 27.0564 102.997 27.2724C102.223 30.4404 101.431 33.6084 100.657 36.7764C100.567 37.1364 100.423 37.2443 100.063 37.2443C98.9467 37.2263 97.8127 37.2263 96.6787 37.2263C96.1207 34.8504 95.5627 32.4924 95.0227 30.1524C94.9867 30.1524 94.9687 30.1344 94.9327 30.1344C94.3747 32.4924 93.8167 34.8504 93.2407 37.2083C91.9807 37.2083 90.7567 37.2083 89.4967 37.2083C88.5787 33.6804 87.7147 30.1524 86.8327 26.5524Z" fill="#7E7E7E"/>
<path d="M130.049 22.5745V27.6684C129.779 27.4524 129.527 27.2184 129.275 27.0204C127.547 25.6884 124.667 26.1564 123.317 28.0464C121.967 29.9364 121.823 32.0064 122.507 34.1664C123.011 35.7864 124.073 36.9564 125.765 37.3884C127.367 37.8023 129.167 37.3524 129.941 35.8584C129.959 35.8224 130.013 35.8044 130.139 35.6964V37.2264H132.983V22.5745H130.049ZM129.941 31.8264C129.959 32.7984 129.779 33.6084 129.167 34.3104C128.411 35.1744 126.521 35.2104 125.819 33.9864C125.045 32.6184 125.027 31.1964 125.801 29.8464C126.593 28.4604 128.609 28.4784 129.455 29.8464C129.851 30.4764 129.977 31.1784 129.941 31.8264Z" fill="#7E7E7E"/>
<path d="M55.281 24.1764C54.417 23.5464 53.445 23.2404 52.383 23.2404C50.511 23.2224 48.639 23.2224 46.7671 23.2224C46.659 23.2224 46.5691 23.2404 46.4431 23.2584V37.2263H49.521V36.7224C49.521 35.5164 49.539 34.2924 49.521 33.0864C49.521 32.7804 49.611 32.6724 49.935 32.6724C50.835 32.6724 51.735 32.6724 52.635 32.6004C55.353 32.3844 56.973 30.6564 57.045 27.9564C57.063 26.4084 56.541 25.1124 55.281 24.1764ZM51.699 29.9544C51.105 29.9544 50.511 29.9364 49.899 29.9544C49.611 29.9544 49.503 29.8644 49.503 29.5584C49.521 29.0004 49.503 28.4604 49.503 27.9024C49.503 27.3624 49.521 26.8224 49.503 26.2824C49.503 26.0124 49.575 25.8684 49.881 25.8864C50.637 25.9224 51.411 25.9044 52.167 25.9404C53.067 25.9944 53.697 26.5884 53.805 27.4884C54.021 29.0364 53.247 29.9364 51.699 29.9544Z" fill="#7E7E7E"/>
<path d="M67.2204 37.2264C67.1664 34.6884 67.1664 32.1864 67.0224 29.7024C66.9504 28.5324 66.2664 27.5784 65.2224 26.9484C63.5844 25.9584 60.6144 25.9764 58.9764 27.5784C58.4004 28.1544 57.9504 28.8024 57.7524 29.6304C58.5084 29.8104 59.2284 29.9544 59.9124 30.1704C60.3084 30.2784 60.5784 30.2784 60.7404 29.8104C60.8124 29.5944 61.0104 29.3784 61.1904 29.2164C61.7124 28.7484 62.3244 28.6404 62.9904 28.8384C63.6024 29.0364 63.9264 29.5044 64.0524 30.1164C64.2324 30.9444 64.0704 31.1424 63.2244 31.1424C62.4684 31.1424 61.6944 31.1244 60.9384 31.1424C60.4704 31.1604 60.0024 31.1964 59.5524 31.3044C57.3384 31.8264 56.4924 34.5984 58.0224 36.2904C59.5344 37.9463 62.4864 37.9463 63.9984 36.2544C64.0884 36.1644 64.1064 36.0204 64.1604 35.9124C64.2144 35.9664 64.2864 36.0024 64.3404 36.0564V37.2444H67.2204V37.2264ZM62.2704 35.1744C61.9644 35.2104 61.6404 35.2104 61.3344 35.1744C60.7224 35.0844 60.3444 34.6344 60.3624 34.0764C60.3804 33.5004 60.7404 33.0684 61.3884 33.0504C62.2884 33.0144 63.1704 33.0504 64.0884 33.0504C64.2684 34.0224 63.4584 35.0124 62.2704 35.1744Z" fill="#7E7E7E"/>
<path d="M108.605 26.2824C105.527 26.2284 103.151 28.5864 103.097 31.7364C103.043 34.9044 105.311 37.3883 108.263 37.5143C111.395 37.6403 114.041 35.4264 114.059 31.9344C114.077 28.6404 111.701 26.2824 108.605 26.2824ZM110.405 33.8424C109.397 35.3364 107.363 35.2104 106.607 33.5724C106.373 33.0684 106.301 32.4744 106.139 31.8984C106.301 31.3224 106.373 30.7284 106.607 30.2064C106.931 29.4504 107.561 28.9824 108.389 28.8924C109.253 28.8204 109.919 29.1984 110.405 29.9184C111.107 30.9804 111.107 32.7984 110.405 33.8424Z" fill="#7E7E7E"/>
<path d="M76.9399 29.4324C76.0939 29.5944 75.2479 29.7384 74.4199 29.8824C74.3479 29.9004 74.2039 29.7204 74.1499 29.6124C73.6459 28.6044 72.6199 28.1724 71.5399 28.5504C71.144 28.6944 70.856 28.9284 70.82 29.3784C70.766 29.8464 71.0359 30.1344 71.4319 30.2604C72.4039 30.5664 73.3939 30.7824 74.3479 31.1064C74.9779 31.3224 75.6439 31.5744 76.1479 31.9704C77.2459 32.8524 77.3719 34.4904 76.5799 35.6964C75.9319 36.6684 75.0139 37.1903 73.8799 37.3883C72.1519 37.6943 70.478 37.5683 68.984 36.5424C68.3 36.0744 67.904 35.4084 67.742 34.5444C68.552 34.3464 69.326 34.1484 70.1 33.9684C70.19 33.9504 70.388 34.0584 70.424 34.1664C71.036 35.3904 72.5839 35.4624 73.4479 35.1744C73.8439 35.0484 74.1499 34.7784 74.1499 34.2924C74.1679 33.8064 73.8259 33.6264 73.4659 33.5184C72.5839 33.2664 71.6839 33.0324 70.802 32.7804C70.478 32.6904 70.154 32.5644 69.83 32.4384C68.732 31.9884 68.03 31.2324 67.958 29.9904C67.886 28.7844 68.282 27.7944 69.308 27.0924C70.208 26.4624 71.234 26.3004 72.2959 26.2824C73.6099 26.2824 74.8699 26.4984 75.8599 27.4524C76.3999 27.9924 76.7599 28.6224 76.9399 29.4324Z" fill="#7E7E7E"/>
<path d="M77.5701 34.5264C78.3621 34.3284 79.1181 34.1304 79.8741 33.9684C79.9821 33.9504 80.1981 34.0404 80.2521 34.1304C80.8281 35.2644 82.1961 35.4444 83.1861 35.1744C83.6901 35.0484 83.9781 34.6884 83.9961 34.2744C84.0141 33.7704 83.6541 33.5904 83.2761 33.4824C82.3941 33.2124 81.4941 32.9964 80.5941 32.7624C80.2701 32.6724 79.9461 32.5464 79.6221 32.4204C78.5421 31.9704 77.8581 31.2144 77.7681 30.0084C77.6961 28.8204 78.0741 27.8304 79.0641 27.1284C79.9641 26.4804 81.0081 26.3004 82.0881 26.3004C83.4021 26.3004 84.6441 26.5164 85.6521 27.4704C86.192 27.9744 86.57 28.6584 86.75 29.4504C86.084 29.5764 85.4 29.6664 84.7521 29.8284C84.3021 29.9364 84.0681 29.8644 83.8341 29.3964C83.3661 28.4784 82.1061 28.1544 81.1701 28.6224C80.8461 28.7844 80.6481 29.0544 80.6481 29.4324C80.6481 29.8104 80.8461 30.0804 81.1701 30.1884C81.9261 30.4404 82.7181 30.6384 83.4741 30.8904C84.1401 31.1064 84.8421 31.2684 85.454 31.5924C86.966 32.4024 87.362 34.2384 86.408 35.6784C85.778 36.6504 84.8421 37.1724 83.7261 37.3704C81.9981 37.6764 80.3241 37.5504 78.8301 36.5244C78.1461 36.0744 77.7501 35.4084 77.5701 34.5264Z" fill="#7E7E7E"/>
<path d="M40.3951 37.2083C40.3951 33.7164 40.3951 30.2604 40.3951 26.7504C39.7111 26.7504 39.0451 26.7504 38.3431 26.7504C38.3431 25.8864 38.3431 25.0944 38.3431 24.2844C38.7751 24.2124 39.2251 24.1584 39.6571 24.0504C40.1971 23.9244 40.6471 23.6544 40.9891 23.2044C41.0611 23.1144 41.1691 23.0064 41.2591 23.0064C41.9971 22.9884 42.7531 23.0064 43.5271 23.0064C43.5271 27.7764 43.5271 32.4744 43.5271 37.2083C42.4831 37.2083 41.4571 37.2083 40.3951 37.2083Z" fill="#7E7E7E"/>
<path d="M117.95 26.5884C117.95 27.1824 117.95 27.7404 117.95 28.2984C117.986 28.2984 118.004 28.3164 118.04 28.3164C118.166 28.1184 118.274 27.9024 118.4 27.7044C119.084 26.6064 120.434 26.0484 121.658 26.3364C121.982 26.4084 122.18 26.5164 122.072 26.9484C121.892 27.6324 121.766 28.3164 121.712 29.0184C121.676 29.4684 121.46 29.4324 121.136 29.4324C120.596 29.4144 120.038 29.4324 119.498 29.5224C118.814 29.6304 118.418 30.0984 118.31 30.7644C118.238 31.1784 118.22 31.5924 118.22 32.0064C118.202 33.5724 118.22 35.1564 118.22 36.7224C118.22 36.8843 118.22 37.0463 118.22 37.2443C117.194 37.2443 116.204 37.2443 115.178 37.2443C115.178 33.6984 115.178 30.1884 115.178 26.6064C116.06 26.5884 116.96 26.5884 117.95 26.5884Z" fill="#7E7E7E"/>
</svg>

<svg xmlns="http://www.w3.org/2000/svg" width="143" height="60" fill="none" viewBox="0 0 143 60"><path fill="#7e7e7e" fill-rule="evenodd" d="M22.48 41.59c6.4 0 11.59-5.19 11.59-11.59s-5.19-11.59-11.59-11.59S10.89 23.6 10.89 30s5.19 11.59 11.59 11.59m2.218-17.766v6.656c0 .178-.07.35-.197.475l-.8.8a.135.135 0 0 0 0 .19l.8.8a.67.67 0 0 1 .197.475v3.135a.67.67 0 0 1-.672.672h-3.093a.67.67 0 0 1-.672-.672v-6.621c0-.179.071-.35.197-.476l.782-.782a.134.134 0 0 0 0-.19l-.782-.782a.67.67 0 0 1-.197-.476v-3.204c0-.372.301-.673.672-.673h3.093c.371 0 .672.302.672.673" clip-rule="evenodd"/><path fill="#7e7e7e" d="M86.833 26.552c.954 0 1.836-.018 2.718.018.09 0 .234.234.27.378l1.404 6.75c.054.252.108.486.198.864.09-.234.144-.324.162-.432a830 830 0 0 0 1.71-7.146c.072-.342.198-.468.558-.45.738.018 1.458.018 2.196 0 .324-.018.432.108.504.414.612 2.412 1.242 4.824 1.854 7.236.036.108.072.216.162.45.27-1.278.504-2.412.756-3.564.288-1.368.576-2.754.846-4.122.072-.324.216-.432.54-.414.792.018 1.584 0 2.43 0-.054.288-.09.522-.144.738-.774 3.168-1.566 6.336-2.34 9.504-.09.36-.234.468-.594.468-1.116-.018-2.25-.018-3.384-.018-.558-2.376-1.116-4.734-1.656-7.074-.036 0-.054-.018-.09-.018-.558 2.358-1.116 4.716-1.692 7.074h-3.744c-.918-3.528-1.782-7.056-2.664-10.656M130.049 22.575v5.093c-.27-.216-.522-.45-.774-.648-1.728-1.332-4.608-.864-5.958 1.026s-1.494 3.96-.81 6.12c.504 1.62 1.566 2.79 3.258 3.222 1.602.414 3.402-.036 4.176-1.53.018-.036.072-.054.198-.162v1.53h2.844V22.575zm-.108 9.251c.018.972-.162 1.782-.774 2.484-.756.864-2.646.9-3.348-.324-.774-1.368-.792-2.79-.018-4.14.792-1.386 2.808-1.368 3.654 0 .396.63.522 1.332.486 1.98M55.281 24.176a4.8 4.8 0 0 0-2.898-.936c-1.872-.018-3.744-.018-5.616-.018-.108 0-.198.018-.324.036v13.968h3.078v-.504c0-1.206.018-2.43 0-3.636 0-.306.09-.414.414-.414.9 0 1.8 0 2.7-.072 2.718-.216 4.338-1.944 4.41-4.644.018-1.548-.504-2.844-1.764-3.78m-3.582 5.778c-.594 0-1.188-.018-1.8 0-.288 0-.396-.09-.396-.396.018-.558 0-1.098 0-1.656 0-.54.018-1.08 0-1.62 0-.27.072-.414.378-.396.756.036 1.53.018 2.286.054.9.054 1.53.648 1.638 1.548.216 1.548-.558 2.448-2.106 2.466M67.22 37.226c-.054-2.538-.054-5.04-.198-7.524-.072-1.17-.756-2.124-1.8-2.754-1.638-.99-4.608-.972-6.246.63-.576.576-1.026 1.224-1.224 2.052.756.18 1.476.324 2.16.54.396.108.666.108.828-.36.072-.216.27-.432.45-.594.522-.468 1.134-.576 1.8-.378.612.198.936.666 1.062 1.278.18.828.018 1.026-.828 1.026-.756 0-1.53-.018-2.286 0-.468.018-.936.054-1.386.162-2.214.522-3.06 3.294-1.53 4.986 1.512 1.656 4.464 1.656 5.976-.036.09-.09.108-.234.162-.342.054.054.126.09.18.144v1.188h2.88zm-4.95-2.052a4 4 0 0 1-.936 0c-.612-.09-.99-.54-.972-1.098.018-.576.378-1.008 1.026-1.026.9-.036 1.782 0 2.7 0 .18.972-.63 1.962-1.818 2.124M108.605 26.282c-3.078-.054-5.454 2.304-5.508 5.454-.054 3.168 2.214 5.652 5.166 5.778 3.132.126 5.778-2.088 5.796-5.58.018-3.294-2.358-5.652-5.454-5.652m1.8 7.56c-1.008 1.494-3.042 1.368-3.798-.27-.234-.504-.306-1.098-.468-1.674.162-.576.234-1.17.468-1.692.324-.756.954-1.224 1.782-1.314.864-.072 1.53.306 2.016 1.026.702 1.062.702 2.88 0 3.924M76.94 29.432c-.846.162-1.692.306-2.52.45-.072.018-.216-.162-.27-.27-.504-1.008-1.53-1.44-2.61-1.062-.396.144-.684.378-.72.828-.054.468.216.756.612.882.972.306 1.962.522 2.916.846.63.216 1.296.468 1.8.864 1.098.882 1.224 2.52.432 3.726-.648.972-1.566 1.494-2.7 1.692-1.728.306-3.402.18-4.896-.846-.684-.468-1.08-1.134-1.242-1.998.81-.198 1.584-.396 2.358-.576.09-.018.288.09.324.198.612 1.224 2.16 1.296 3.024 1.008.396-.126.702-.396.702-.882.018-.486-.324-.666-.684-.774-.882-.252-1.782-.486-2.664-.738-.324-.09-.648-.216-.972-.342-1.098-.45-1.8-1.206-1.872-2.448-.072-1.206.324-2.196 1.35-2.898.9-.63 1.926-.792 2.988-.81 1.314 0 2.574.216 3.564 1.17.54.54.9 1.17 1.08 1.98M77.57 34.526c.792-.198 1.548-.396 2.304-.558.108-.018.324.072.378.162.576 1.134 1.944 1.314 2.934 1.044.504-.126.792-.486.81-.9.018-.504-.342-.684-.72-.792-.882-.27-1.782-.486-2.682-.72-.324-.09-.648-.216-.972-.342-1.08-.45-1.764-1.206-1.854-2.412-.072-1.188.306-2.178 1.296-2.88.9-.648 1.944-.828 3.024-.828 1.314 0 2.556.216 3.564 1.17.54.504.918 1.188 1.098 1.98-.666.126-1.35.216-1.998.378-.45.108-.684.036-.918-.432-.468-.918-1.728-1.242-2.664-.774-.324.162-.522.432-.522.81s.198.648.522.756c.756.252 1.548.45 2.304.702.666.216 1.368.378 1.98.702 1.512.81 1.908 2.646.954 4.086-.63.972-1.566 1.494-2.682 1.692-1.728.306-3.402.18-4.896-.846-.684-.45-1.08-1.116-1.26-1.998M40.395 37.208V26.75h-2.052v-2.466c.432-.072.882-.126 1.314-.234.54-.126.99-.396 1.332-.846.072-.09.18-.198.27-.198.738-.018 1.494 0 2.268 0v14.202zM117.95 26.588v1.71c.036 0 .054.018.09.018.126-.198.234-.414.36-.612.684-1.098 2.034-1.656 3.258-1.368.324.072.522.18.414.612a11.6 11.6 0 0 0-.36 2.07c-.036.45-.252.414-.576.414-.54-.018-1.098 0-1.638.09-.684.108-1.08.576-1.188 1.242-.072.414-.09.828-.09 1.242-.018 1.566 0 3.15 0 4.716v.522h-3.042V26.606c.882-.018 1.782-.018 2.772-.018"/></svg>
